icons/svg/skimap/piste_skitour.svg

<?xml version="1.0" encoding="UTF-8" standalone="no"?>
<svg
   xmlns:dc="http://purl.org/dc/elements/1.1/"
   xmlns:cc="http://creativecommons.org/ns#"
   xmlns:rdf="http://www.w3.org/1999/02/22-rdf-syntax-ns#"
   xmlns:svg="http://www.w3.org/2000/svg"
   xmlns="http://www.w3.org/2000/svg"
   xmlns:sodipodi="http://sodipodi.sourceforge.net/DTD/sodipodi-0.dtd"
   xmlns:inkscape="http://www.inkscape.org/namespaces/inkscape"
   width="32"
   height="32"
   id="svg2"
   version="1.1"
   inkscape:version="0.48.4 r9939"
   sodipodi:docname="piste_nordic.svg">
  <defs
     id="defs13">
    <inkscape:path-effect
       effect="gears"
       id="path-effect3774"
       is_visible="true"
       teeth="6"
       phi="-1.2" />
    <inkscape:path-effect
       effect="bend_path"
       id="path-effect3772"
       is_visible="false"
       bendpath="m 95.790098,316.51174 c 144.429032,-206.42506 223.313032,-11.7428 339.548092,0"
       prop_scale="1.19"
       scale_y_rel="false"
       vertical="false"
       bendpath-nodetypes="cc" />
  </defs>
  <sodipodi:namedview
     pagecolor="#ffffff"
     bordercolor="#666666"
     borderopacity="1"
     objecttolerance="10"
     gridtolerance="10"
     guidetolerance="10"
     inkscape:pageopacity="0"
     inkscape:pageshadow="2"
     inkscape:window-width="1680"
     inkscape:window-height="1021"
     id="namedview11"
     showgrid="false"
     inkscape:zoom="9.2070175"
     inkscape:cx="7.6258907"
     inkscape:cy="20.202625"
     inkscape:window-x="0"
     inkscape:window-y="0"
     inkscape:window-maximized="1"
     inkscape:current-layer="svg2"
     inkscape:snap-object-midpoints="true"
     inkscape:snap-page="true" />
  <metadata
     id="metadata2975">image/svg+xmlen<rdf:RDF>
  <cc:Work
     rdf:about="">
    <dc:format>image/svg+xml</dc:format>
    <dc:type
       rdf:resource="http://purl.org/dc/dcmitype/StillImage" />
    <dc:title></dc:title>
  </cc:Work>
</rdf:RDF>
</metadata>
  <g
     transform="matrix(0.0551864,0,0,0.0551864,0,-0.0555723)"
     id="g1327">
    <path
       inkscape:connector-curvature="0"
       d="M 66.275,1.768 C 24.94,1.768 1.704,23.139 1.704,66.804 l 0,450.123 c 0,40.844 20.895,62.229 62.192,62.229 l 452.024,0 c 41.307,0 62.229,-20.315 62.229,-62.229 l 0,-450.123 c 0,-42.601 -20.922,-65.036 -63.521,-65.036 -0.004,0 -448.495,-0.143 -448.353,0 z"
       style="fill:#111111;stroke:#eeeeee;stroke-width:3.40799999"
       id="path1329" />
  </g>
  <path
     inkscape:connector-curvature="0"
     style="font-size:40px;font-style:normal;font-variant:normal;font-weight:normal;font-stretch:normal;text-align:start;line-height:125%;writing-mode:lr-tb;text-anchor:start;fill:#ffffff;fill-opacity:1;stroke:none;font-family:NPSPICT3;-inkscape-font-specification:NPSPICT3"
     d="m 15.40625,5.8437512 c -0.08584,0.00941 -0.166639,0.030494 -0.25,0.0625 -0.345516,0.1326924 -0.601696,0.3855528 -0.75,0.71875 -0.148317,0.3332316 -0.132827,0.6853823 0,1.03125 0.132667,0.3455234 0.354278,0.5704552 0.6875,0.71875 0.333208,0.1483252 0.654481,0.1639399 1,0.03125 0.333439,-0.1280282 0.595464,-0.351882 0.75,-0.6875 0.154519,-0.3355855 0.132665,-0.6544755 0,-1 -0.132827,-0.3458666 -0.348076,-0.6353092 -0.6875,-0.78125 -0.169719,-0.072952 -0.329081,-0.091076 -0.5,-0.09375 -0.08546,-0.00134 -0.164156,-0.00941 -0.25,0 z m -3.21875,2.34375 c -0.508802,-0.00139 -1.077458,0.2651436 -1.4375,0.9375 L 9.90625,13.406251 c -0.198958,0.862149 2.048853,1.209616 2.1875,0.625 0.08391,-0.353831 0.615216,-4.2580338 1.1875,-5.1874998 -0.13532,-0.3834475 -0.584948,-0.6548589 -1.09375,-0.65625 z m 7.5625,0.4375 c -0.07545,0.00175 -0.170869,0.032122 -0.25,0.0625 -0.158284,0.060796 -0.242552,0.1345919 -0.375,0.25 l -1.21875,1 -2.875,-1.125 c -0.187697,-0.083803 -0.359063,-0.10936 -0.5625,-0.03125 -0.736191,0.085748 -0.915906,1.2646438 -1.0625,1.7499998 l -0.6875,4.03125 0.84375,3.093751 -0.78125,3.78125 c -0.0077,0.229993 0.07873,0.400386 0.21875,0.5625 0.140017,0.162116 0.301631,0.273588 0.53125,0.28125 0.217809,0.0073 0.437329,-0.09778 0.59375,-0.25 0.156427,-0.152215 0.211464,-0.344696 0.21875,-0.5625 l 0.78125,-3.34375 c 0.02969,-0.129992 0.06121,-0.263802 0.0625,-0.375 0.01595,-0.282223 -0.01006,-0.450766 -0.09375,-0.71875 l -0.46875,-2.062501 2.40625,1.031251 0.53125,3.4375 c 0.0033,0.07667 -0.0174,0.142333 0,0.1875 0.07811,0.203448 0.234193,0.347014 0.4375,0.4375 0.20329,0.09049 0.421545,0.109379 0.625,0.03125 0.384119,-0.147501 0.529927,-0.444664 0.46875,-0.875 l -0.625,-3.843751 c -0.05453,-0.445945 -0.359187,-0.75668 -0.625,-0.875 l -2.28125,-0.84375 c 0.04098,-0.164045 0.09485,-0.49978 0.09375,-0.5 0.60597,0.160809 1.182425,0.282729 1.78125,0.40625 0.736358,0.07038 0.960664,-1.009097 0.25,-1.25 l -1.8125,-0.46875 c 0,0 0.16176,-0.674215 0.15625,-1.25 l 1.65625,0.625 c 0.156389,0.06934 0.321846,0.05641 0.46875,0 0.192055,-0.07374 0.305261,-0.148352 0.59375,-0.40625 l 1.59375,-1.3437498 c 0.0469,-0.1477788 0.02078,-0.3019716 -0.03125,-0.4375 -0.06502,-0.1692916 -0.181708,-0.2761831 -0.34375,-0.34375 -0.08103,-0.033768 -0.143304,-0.064255 -0.21875,-0.0625 z m 1.4375,0.1875 -0.5,0.03125 0.625,10.0625008 0.46875,-0.1875 -0.59375,-9.9062508 z m -2.09375,4.6874998 -0.46875,0.09375 1.40625,6.843751 -8.71875,3.375 0.375,0.9375 8.53125,-3.3125 0.46875,2.3125 0.46875,-0.1875 -0.46875,-2.3125 3.375,-1.3125 c 0.378171,-0.155715 0.397897,-0.271878 0.65625,-0.59375 0.258331,-0.34108 0.371941,-1.090602 0.21875,-1.5 l -0.84375,0.1875 c 0.09377,0.246851 0.12115,0.548774 -0.03125,0.75 -0.07278,0.09608 -0.194385,0.173698 -0.3125,0.21875 l -3.28125,1.25 -1.375,-6.750001 z"
     id="flowRoot3192" />
</svg>

<?xml version="1.0" encoding="UTF-8" standalone="no"?>
<svg
   xmlns:dc="http://purl.org/dc/elements/1.1/"
   xmlns:cc="http://creativecommons.org/ns#"
   xmlns:rdf="http://www.w3.org/1999/02/22-rdf-syntax-ns#"
   xmlns:svg="http://www.w3.org/2000/svg"
   xmlns="http://www.w3.org/2000/svg"
   xmlns:sodipodi="http://sodipodi.sourceforge.net/DTD/sodipodi-0.dtd"
   xmlns:inkscape="http://www.inkscape.org/namespaces/inkscape"
   width="32"
   height="32"
   id="svg2"
   version="1.1"
   inkscape:version="0.48.4 r9939"
   sodipodi:docname="piste_skitour.svg">
  <defs
     id="defs13">
    <inkscape:path-effect
       effect="gears"
       id="path-effect3774"
       is_visible="true"
       teeth="6"
       phi="-1.2" />
    <inkscape:path-effect
       effect="bend_path"
       id="path-effect3772"
       is_visible="false"
       bendpath="m 95.790098,316.51174 c 144.429032,-206.42506 223.313032,-11.7428 339.548092,0"
       prop_scale="1.19"
       scale_y_rel="false"
       vertical="false"
       bendpath-nodetypes="cc" />
  </defs>
  <sodipodi:namedview
     pagecolor="#ffffff"
     bordercolor="#666666"
     borderopacity="1"
     objecttolerance="10"
     gridtolerance="10"
     guidetolerance="10"
     inkscape:pageopacity="0"
     inkscape:pageshadow="2"
     inkscape:window-width="1280"
     inkscape:window-height="995"
     id="namedview11"
     showgrid="false"
     inkscape:zoom="13.020689"
     inkscape:cx="24.639328"
     inkscape:cy="24.549071"
     inkscape:window-x="0"
     inkscape:window-y="0"
     inkscape:window-maximized="1"
     inkscape:current-layer="svg2"
     inkscape:snap-object-midpoints="true"
     inkscape:snap-page="true" />
  <metadata
     id="metadata2975">image/svg+xmlen<rdf:RDF>
  <cc:Work
     rdf:about="">
    <dc:format>image/svg+xml</dc:format>
    <dc:type
       rdf:resource="http://purl.org/dc/dcmitype/StillImage" />
    <dc:title></dc:title>
  </cc:Work>
</rdf:RDF>
</metadata>
  <path
     style="font-size:40px;font-style:normal;font-variant:normal;font-weight:normal;font-stretch:normal;text-align:start;line-height:125%;writing-mode:lr-tb;text-anchor:start;fill:#323232;fill-opacity:1;stroke:none;font-family:NPSPICT3;-inkscape-font-specification:NPSPICT3"
     d="M 15.40625 5.84375 C 15.320406 5.8531566 15.239611 5.8742435 15.15625 5.90625 C 14.810734 6.0389424 14.554554 6.2918028 14.40625 6.625 C 14.257933 6.9582316 14.273423 7.3103823 14.40625 7.65625 C 14.538917 8.0017734 14.760528 8.2267052 15.09375 8.375 C 15.426958 8.5233252 15.748231 8.5389399 16.09375 8.40625 C 16.427189 8.2782218 16.689214 8.054368 16.84375 7.71875 C 16.998269 7.3831645 16.976415 7.0642745 16.84375 6.71875 C 16.710923 6.3728834 16.495674 6.0834408 16.15625 5.9375 C 15.986531 5.8645481 15.827169 5.8464238 15.65625 5.84375 C 15.570791 5.84241 15.492094 5.8343434 15.40625 5.84375 z M 12.1875 8.1875 C 11.678698 8.18611 11.110042 8.4526436 10.75 9.125 L 9.90625 13.40625 C 9.707292 14.268399 11.955103 14.615866 12.09375 14.03125 C 12.17766 13.677419 12.708966 9.773216 13.28125 8.84375 C 13.14593 8.4603025 12.696302 8.1888911 12.1875 8.1875 z M 19.75 8.625 C 19.67455 8.62675 19.579131 8.657122 19.5 8.6875 C 19.341716 8.748296 19.257448 8.8220919 19.125 8.9375 L 17.90625 9.9375 L 15.03125 8.8125 C 14.843553 8.728697 14.672187 8.70314 14.46875 8.78125 C 13.732559 8.866998 13.552844 10.045894 13.40625 10.53125 L 12.71875 14.5625 L 13.5625 17.65625 L 12.78125 21.4375 C 12.77355 21.667493 12.85998 21.837886 13 22 C 13.140017 22.162116 13.301631 22.273588 13.53125 22.28125 C 13.749059 22.28855 13.968579 22.18347 14.125 22.03125 C 14.281427 21.879035 14.336464 21.686554 14.34375 21.46875 L 15.125 18.125 C 15.15469 17.995008 15.18621 17.861198 15.1875 17.75 C 15.20345 17.467777 15.17744 17.299234 15.09375 17.03125 L 14.625 14.96875 L 17.03125 16 L 17.5625 19.4375 C 17.5658 19.51417 17.5451 19.579833 17.5625 19.625 C 17.64061 19.828448 17.796693 19.972014 18 20.0625 C 18.20329 20.15299 18.421545 20.171879 18.625 20.09375 C 19.009119 19.946249 19.154927 19.649086 19.09375 19.21875 L 18.46875 15.375 C 18.41422 14.929055 18.109563 14.61832 17.84375 14.5 L 15.5625 13.65625 C 15.60348 13.492205 15.65735 13.15647 15.65625 13.15625 C 16.26222 13.317059 16.838675 13.438979 17.4375 13.5625 C 18.173858 13.63288 18.398164 12.553403 17.6875 12.3125 L 15.875 11.84375 C 15.875 11.84375 16.03676 11.169535 16.03125 10.59375 L 17.6875 11.21875 C 17.843889 11.28809 18.009346 11.27516 18.15625 11.21875 C 18.348305 11.14501 18.461511 11.070398 18.75 10.8125 L 20.34375 9.46875 C 20.39065 9.3209712 20.36453 9.1667784 20.3125 9.03125 C 20.24748 8.8619584 20.130792 8.7550669 19.96875 8.6875 C 19.88772 8.653732 19.825446 8.623245 19.75 8.625 z M 21.1875 8.8125 L 20.6875 8.84375 L 21.3125 18.90625 L 21.78125 18.71875 L 21.1875 8.8125 z M 19.09375 13.5 L 18.625 13.59375 L 20.03125 20.4375 L 11.3125 23.8125 L 11.6875 24.75 L 20.21875 21.4375 L 20.6875 23.75 L 21.15625 23.5625 L 20.6875 21.25 L 24.0625 19.9375 C 24.440671 19.781785 24.460397 19.665622 24.71875 19.34375 C 24.977081 19.00267 25.090691 18.253148 24.9375 17.84375 L 24.09375 18.03125 C 24.18752 18.278101 24.2149 18.580024 24.0625 18.78125 C 23.98972 18.87733 23.868115 18.954948 23.75 19 L 20.46875 20.25 L 19.09375 13.5 z "
     id="flowRoot3192" />
</svg>
